X: 28767
T: My Lodging Is Uncertain
R: reel
M: 4/4
K: Eminor
Bd|:e3g gfed|e2B2 BBAG|A2AG ABd2|d4- d2Bd|
e2eg gfed|e2B2 BBAG|A2AG GED2|1 E4- E2Bd:|2 E4- E2AB||
|:A2E2 EEDE|c2cA B2AG|A2AG ABd2|d4- d2dB|
A2E2 EEDE|c2cA B2AG|A2AG GED2|1 E4- E2AB:|2 E4- E2Bd||

